!!!COM: Pacius, Fredrik
!!!CDT: b. 1928
!!!OTL: National Anthem, Finland
!!!ENC: Davis, Matthew J.
!!Vocal Line Only
**kern
*clefG2
*k[f#c#g#]
*A:
*M3/4
=1-
8e
8c#
8d
=2
4.e
8a
8.b
16e
=3
2cc#
4a
=4
8.f#
16b
4a
4g#
=5
4a
==!|:6
4e
=7
8.b
16a
8g
8f#
8e
8d
=8
8c#
8f#
4e
4e
=9
8.b
16a
8g#
8f#
8e
8d
=10
8c#
8f#
4.e
8e
=11
8.a
16e
8c#
8e
8a
8b
=12
2cc#
4a
=13
8.f#
16b
4a
4g#
=14
2a
!Repeat from measure 6 to the end
==:|!
*-
